!!!OTL: "Auf der Alm" AUF DER ALMA, DA FINDEN DIE KUEH BESTE GRAS
!!!ARE: Europa, Mitteleuropa, Tirol
!!!SCT: Z1256
!!!YEM: Copyright 1995, estate of Helmut Schaffrath.
**kern
*ICvox
*Ivox
*M3/4
*k[f#]
*G:
{8d
8c
=1
8B
8d
4.b
8a
=2
8g
8B
4.d}
{8g
=3
8f#
8A
8c
8f#
8a
8f#
=4
8g
8B
4.d}
{8c
=5
8B
8d
4.b
8a
=6
8g
8B
4.d}
{8dd
=7
8ee
8dd
8cc
8d
8f#
8a
=8
4g
4r}
{8a
8g#
=9
8b
8a
4.g
8c#
=10
8d
8f#
4a}
{8dd
8dd
=11
8cc#
8b
8a
8g
8e
8c#
=12
4d
4dd}
{8a
8g#
=13
8b
8a
4.g
8c#
=14
8d
8f#
4.a}
{8dd
=15
8cc#
8b
8a
8g
8e
8c#
=16
4d
4r}
{8d
8c
=17
8B
8d
4.b
8a
=18
8g
8B
4.d}
{8g
=19
8f#
8A
8c
8f#
8a
8f#
=20
8g
8B
4.d}
{8c
=21
8B
8d
4.b
8a
=22
8g
8B
4.d}
{8dd
=23
8ee
8dd
8cc
8d
8f#
8a
=24
4g
4r}
==
!!!AGN: Liebes - Lied
!!!ONB: ESAC (Essen Associative Code) Database: ZUCCAL
!!!AMT: simple triple
!!!AIN: vox
!!!EED: Helmut Schaffrath
!!!EEV: 1.0
*-
